docs/Widgets/org.openxtalk.hermann.progress.1.3.0.svg

<?xml version="1.0" standalone="no"?><!DOCTYPE svg PUBLIC "-//W3C//DTD SVG 20010904//EN" "http://www.w3.org/TR/2001/REC-SVG-20010904/DTD/svg10.dtd"><svg version="1.0" xmlns="http://www.w3.org/2000/svg"preserveAspectRatio="xMidYMid meet"><path d="M0 63.5 C 0 127,0 127,140 127 C 280 127,280 127,280 63.5 C 280 0,280 0,140 0 C 0 0,0 0,0 63.5 M128.438 30.9 C 128.744 31.394,128.701 37.244,128.343 43.9 C 127.693 56,127.693 56,121.486 56 C 115.279 56,115.279 56,114.648 50.750 C 114.301 47.862,114.013 42.013,114.009 37.750 C 114 30,114 30,120.941 30 C 124.759 30,128.132 30.405,128.438 30.9 M50.347 36.364 C 63.873 40.546,70.164 51.350,66.418 63.966 C 63.687 73.161,54.638 78.834,40 80.528 C 34.5 81.165,34.5 81.165,34.5 89.332 C 34.5 97.5,34.5 97.5,26.250 97.790 C 18 98.081,18 98.081,18 65.892 C 18 33.703,18 33.703,31.750 34.284 C 39.430 34.609,47.640 35.527,50.347 36.364 M34 58.373 C 34 70,34 70,37.032 70 C 41.237 70,46.426 67.658,48.369 64.883 C 51.034 61.078,50.487 54.577,47.191 50.887 C 44.906 48.331,43.411 47.650,39.191 47.244 C 34 46.746,34 46.746,34 58.373 M110.595 53.750 C 111.502 56.913,112.392 59.758,112.572 60.073 C 112.752 60.388,108.085 62.509,102.2 64.787 C 91.5 68.927,91.5 68.927,91.801 83.464 C 92.103 98,92.103 98,84.051 98 C 76 98,76 98,76 73.5 C 76 49,76 49,83.5 49 C 91 49,91 49,91 52 C 91 53.650,91.188 55,91.419 55 C 91.649 55,95.124 53.425,99.140 51.5 C 103.157 49.575,107.006 48,107.694 48 C 108.382 48,109.687 50.587,110.595 53.750 M166.905 48.973 C 175.704 51.496,182 59.932,182 69.196 C 182 74,182 74,166 74 C 148.512 74,148.489 74.009,151.960 79.701 C 154.962 84.626,159.192 86.316,169.750 86.808 C 179 87.239,179 87.239,179 90.554 C 179 92.378,178.561 95.024,178.025 96.435 C 177.119 98.816,176.595 99,170.708 99 C 147.866 99,134.685 89.478,134.719 73.002 C 134.744 60.891,140.905 52.307,151.994 48.934 C 155.626 47.829,162.984 47.848,166.905 48.973 M223.358 52.750 C 224.536 59.879,224.710 59.691,216.432 60.223 C 207.868 60.772,204.605 62.614,207.026 65.531 C 207.771 66.429,210.935 68.453,214.057 70.029 C 224.626 75.364,227.747 82.581,222.737 90.102 C 218.806 96.003,209.627 99,195.480 99 C 187.399 99,187.042 98.653,187.014 90.750 C 187 87,187 87,194.435 87 C 208.913 87,211.145 83.426,200.243 77.697 C 190.794 72.731,188.5 70.051,188.5 63.975 C 188.5 59.775,188.976 58.620,191.983 55.518 C 196.486 50.872,202.241 49.157,213.619 49.070 C 222.738 49,222.738 49,223.358 52.750 M265.358 52.750 C 266.536 59.879,266.710 59.691,258.432 60.223 C 249.868 60.772,246.605 62.614,249.026 65.531 C 249.771 66.429,252.935 68.453,256.057 70.029 C 266.626 75.364,269.747 82.581,264.737 90.102 C 260.806 96.003,251.627 99,237.480 99 C 229.399 99,229.042 98.653,229.014 90.750 C 229 87,229 87,236.435 87 C 250.913 87,253.145 83.426,242.243 77.697 C 232.794 72.731,230.5 70.051,230.5 63.975 C 230.5 59.775,230.976 58.620,233.983 55.518 C 238.486 50.872,244.241 49.157,255.619 49.070 C 264.738 49,264.738 49,265.358 52.750 M154.217 59.561 C 152.991 60.419,151.305 62.444,150.469 64.061 C 148.949 67,148.949 67,158.422 67 C 167.896 67,167.896 67,166.845 63.984 C 164.905 58.419,158.866 56.304,154.217 59.561Z" /></svg>

<?xml version="1.0" encoding="utf-8"?>
<!-- Generator: Adobe Illustrator 26.5.0, SVG Export Plug-In . SVG Version: 6.00 Build 0)  -->
<svg version="1.1" id="Layer_1" xmlns="http://www.w3.org/2000/svg" xmlns:xlink="http://www.w3.org/1999/xlink" x="0px" y="0px"
	 viewBox="0 0 280 127" style="enable-background:new 0 0 280 127;" xml:space="preserve">
<path d="M0,63.5C0,127,0,127,140,127s140,0,140-63.5S280,0,140,0S0,0,0,63.5 M128.4,30.9c0.3,0.5,0.3,6.3-0.1,13
	C127.7,56,127.7,56,121.5,56s-6.2,0-6.8-5.2c-0.3-2.9-0.6-8.7-0.6-13c0-7.8,0-7.8,6.9-7.8C124.8,30,128.1,30.4,128.4,30.9
	 M50.3,36.4c13.5,4.2,19.8,15,16.1,27.6C63.7,73.2,54.6,78.8,40,80.5c-5.5,0.6-5.5,0.6-5.5,8.8c0,8.2,0,8.2-8.2,8.5
	C18,98.1,18,98.1,18,65.9s0-32.2,13.8-31.6C39.4,34.6,47.6,35.5,50.3,36.4 M34,58.4C34,70,34,70,37,70c4.2,0,9.4-2.3,11.3-5.1
	c2.7-3.8,2.1-10.3-1.2-14c-2.3-2.6-3.8-3.2-8-3.6C34,46.7,34,46.7,34,58.4 M110.6,53.8c0.9,3.2,1.8,6,2,6.3
	c0.2,0.3-4.5,2.4-10.4,4.7c-10.7,4.1-10.7,4.1-10.4,18.7C92.1,98,92.1,98,84.1,98C76,98,76,98,76,73.5S76,49,83.5,49s7.5,0,7.5,3
	c0,1.7,0.2,3,0.4,3c0.2,0,3.7-1.6,7.7-3.5c4-1.9,7.9-3.5,8.6-3.5S109.7,50.6,110.6,53.8 M166.9,49c8.8,2.5,15.1,11,15.1,20.2
	c0,4.8,0,4.8-16,4.8c-17.5,0-17.5,0-14,5.7c3,4.9,7.2,6.6,17.8,7.1c9.2,0.4,9.2,0.4,9.2,3.7c0,1.8-0.4,4.5-1,5.9
	c-0.9,2.4-1.4,2.6-7.3,2.6c-22.8,0-36-9.5-36-26c0-12.1,6.2-20.7,17.3-24.1C155.6,47.8,163,47.8,166.9,49 M223.4,52.8
	c1.2,7.1,1.4,6.9-6.9,7.5c-8.6,0.5-11.8,2.4-9.4,5.3c0.7,0.9,3.9,2.9,7,4.5c10.6,5.3,13.7,12.6,8.7,20.1c-3.9,5.9-13.1,8.9-27.3,8.9
	c-8.1,0-8.4-0.3-8.5-8.2c0-3.8,0-3.8,7.4-3.8c14.5,0,16.7-3.6,5.8-9.3c-9.4-5-11.7-7.6-11.7-13.7c0-4.2,0.5-5.4,3.5-8.5
	c4.5-4.6,10.3-6.4,21.6-6.4C222.7,49,222.7,49,223.4,52.8 M265.4,52.8c1.2,7.1,1.4,6.9-6.9,7.5c-8.6,0.5-11.8,2.4-9.4,5.3
	c0.7,0.9,3.9,2.9,7,4.5c10.6,5.3,13.7,12.6,8.7,20.1c-3.9,5.9-13.1,8.9-27.3,8.9c-8.1,0-8.4-0.3-8.5-8.2c0-3.8,0-3.8,7.4-3.8
	c14.5,0,16.7-3.6,5.8-9.3c-9.4-5-11.7-7.6-11.7-13.7c0-4.2,0.5-5.4,3.5-8.5c4.5-4.6,10.3-6.4,21.6-6.4C264.7,49,264.7,49,265.4,52.8
	 M154.2,59.6c-1.2,0.9-2.9,2.9-3.7,4.5c-1.5,2.9-1.5,2.9,8,2.9c9.5,0,9.5,0,8.4-3C164.9,58.4,158.9,56.3,154.2,59.6z"/>
</svg>
